plasma/desktoptheme/Materia-Color/icons/TeamViewer.svg

<svg xmlns="http://www.w3.org/2000/svg" width="32" height="32" version="1.1">
 <defs id="materia">
  <style id="current-color-scheme" type="text/css">
   .ColorScheme-Background {color:#181818; } .ColorScheme-ButtonBackground { color:#343434; } .ColorScheme-Highlight { color:#4285f4; } .ColorScheme-Text { color:#dfdfdf; } .ColorScheme-ViewBackground { color:#242424; } .ColorScheme-NegativeText { color:#f44336; } .ColorScheme-PositiveText { color:#4caf50; } .ColorScheme-NeutralText { color:#ff9800; }
  </style>
 </defs>
 <g id="22-22-TeamViewer" transform="translate(32.000001,10.000001)">
  <rect style="opacity:0.001" width="22" height="22" x="0" y="0"/>
  <path style="fill:currentColor" class="ColorScheme-Text" d="m 11,3 c -4.4179185,-10e-8 -8.0000001,3.5820815 -8,8 -10e-8,4.417918 3.5820815,8 8,8 4.417918,0 8,-3.582082 8,-8 C 19,6.5820815 15.417918,2.9999999 11,3 Z M 9,8 v 2 h 4 V 8 l 3,3 -3,3 V 12 H 9 v 2 L 6,11 Z"/>
 </g>
 <g id="TeamViewer">
  <rect style="opacity:0.001" width="32" height="32" x="0" y="0"/>
  <path style="fill:currentColor" class="ColorScheme-Text" d="M 16 4 C 9.3731226 3.9999999 3.9999998 9.3731223 4 16 C 3.9999999 22.626877 9.3731226 28 16 28 C 22.626878 28 28 22.626877 28 16 C 28 9.3731223 22.626878 3.9999999 16 4 z M 13 11 L 13 14 L 19 14 L 19 11 L 24 16 L 19 21 L 19 18 L 13 18 L 13 21 L 8 16 L 13 11 z"/>
 </g>
</svg>

<?xml version="1.0" encoding="UTF-8"?>
<svg width="32" height="32" version="1.1" xmlns="http://www.w3.org/2000/svg">
 <defs id="materia">
  <style id="current-color-scheme" type="text/css">.ColorScheme-Background {color:#181818; } .ColorScheme-ButtonBackground { color:#343434; } .ColorScheme-Highlight { color:#4285f4; } .ColorScheme-Text { color:#dfdfdf; } .ColorScheme-ViewBackground { color:#242424; } .ColorScheme-NegativeText { color:#f44336; } .ColorScheme-PositiveText { color:#4caf50; } .ColorScheme-NeutralText { color:#ff9800; }</style>
 </defs>
 <g id="22-22-TeamViewer" transform="translate(32 10)">
  <rect width="22" height="22" opacity=".001"/>
  <path class="ColorScheme-Text" d="m11 3c-4.4179-1e-7 -8 3.5821-8 8-1e-7 4.4179 3.5821 8 8 8 4.4179 0 8-3.5821 8-8 0-4.4179-3.5821-8-8-8zm-2 5v2h4v-2l3 3-3 3v-2h-4v2l-3-3z" fill="currentColor"/>
 </g>
 <g id="TeamViewer">
  <rect width="32" height="32" opacity=".001"/>
  <path class="ColorScheme-Text" d="m16 4c-6.6269-1e-7 -12 5.3731-12 12-1e-7 6.6269 5.3731 12 12 12 6.6269 0 12-5.3731 12-12 0-6.6269-5.3731-12-12-12zm-3 7v3h6v-3l5 5-5 5v-3h-6v3l-5-5 5-5z" fill="currentColor"/>
 </g>
</svg>
